app/assets/images/icons/codepen.svg

<?xml version="1.0" encoding="utf-8"?>
<svg viewBox="0 0 50 50" xmlns="http://www.w3.org/2000/svg">
  <path d="M25 4l-21 13.345v15.309l21 13.346 21-13.345v-15.31l-21-13.345zm0 25.182l-5.932-4.113 5.932-4.044 5.932 4.044-5.932 4.113zm2-11.576v-7.656l13.43 8.534-6.019 4.173-7.411-5.051zm-4 0l-7.411 5.052-6.019-4.173 13.43-8.535v7.656zm-10.908 7.436l-4.092 2.789v-5.627l4.092 2.838zm3.478 2.411l7.43 5.151v7.446l-13.409-8.521 5.979-4.076zm11.43 5.151l7.43-5.151 5.979 4.076-13.409 8.521v-7.446zm10.908-7.562l4.092-2.837v5.627l-4.092-2.79z" stroke-width="2" stroke-miterlimit="10" fill="none" style="stroke: rgb(191, 176, 125);"/>
</svg>

<?xml version="1.0" encoding="utf-8"?>
<svg style="enable-background:new 0 0 50 50;" x="0px" y="0px" viewBox="0 0 50 50" xmlns="http://www.w3.org/2000/svg">
  <path d="M25,4L4,17.345v15.309L25,46l21-13.345V17.345L25,4z M25,29.182l-5.932-4.113L25,21.025l5.932,4.044L25,29.182z M27,17.606&#10;&#9;V9.95l13.43,8.534l-6.019,4.173L27,17.606z M23,17.606l-7.411,5.052L9.57,18.485L23,9.95V17.606z M12.092,25.042L8,27.831v-5.627&#10;&#9;L12.092,25.042z M15.57,27.453L23,32.604v7.446L9.591,31.529L15.57,27.453z M27,32.604l7.43-5.151l5.979,4.076L27,40.05V32.604z&#10;&#9; M37.908,25.042L42,22.205v5.627L37.908,25.042z" style="fill: rgb(191, 176, 125);"/>
</svg>
